X:1
T:Title
%%score { ( 1 3 ) | 2 }
L:1/8
M:4/4
K:Eb
V:1 treble nm="Grand Piano"
V:3 treble 
V:2 bass 
V:1
 z4 z2[Q:1/4=100] EF | G2 GG G2 G[FA] | [GB]2 [GB][GB] [GB]2 [GB][GB] | c2 cc [GB]2 [EG][FA] | %4
[M:9/8] [GB]2 [FA] [EG] [DF]2- [DF]EF |[M:4/4] G2 GG G2 G[FA] | [GB]2 [GB][GB] [GB]2 [GB][GB] | %7
 c2 cc [GB][GB][EG][EA] |[M:7/8] [EB]2 [A,DF] [A,DF] [G,E]3 |[M:1/4] [B,EG][B,FA] | %10
[M:4/4] [GB]6 z2 | [Ge]6 z2 | [EAc]2 [EAc][EAc] [EGB][EGB][B,EG][B,FA] | %13
[M:9/8] [B,GB]2 [B,FA] [B,EG] [B,DF]2- [B,DF]EF |[M:4/4] G2 GG G2 G[FA] | %15
 [GB]2 [GB][GB] [GB]2 [GB][GB] | c2 cc [GB][GB][EG][EA] |[M:7/8] [EB]2 [DF] [DF] E3 |] %18
V:2
 z4 z2 [E,G,][E,A,E] | [E,B,E]2 [E,B,E][E,B,E] [E,B,E]2 [E,B,E][E,B,] | %2
 [E,E]2 [E,E][E,E] [E,E]2 [E,E][E,E] | [A,EA]2 [A,EA][A,EA][K:bass] [E,E]2 [E,B,][E,B,] | %4
[M:9/8] [E,B,]2 [D,B,] [E,B,] [B,,B,]2- [B,,B,][E,G,][E,A,E] | %5
[M:4/4] [E,B,E]2 [E,B,E][E,B,E] [E,B,E]2 [E,B,E][E,B,] | [E,E]2 [E,E][E,E] [E,E]2 [E,E][E,E] | %7
 [A,EA]2 [A,EA][A,EA][K:bass] [E,E][E,E][E,B,][C,A,] |[M:7/8] [B,,G,]2 B,, B,, E,3 |[M:1/4] E,E, | %10
[M:4/4] E,2 E,E, E,2 [E,E][E,E] | [E,B,]2 E,E, E,2 E,E, | A,2 A,A, E,E,E,E, | %13
[M:9/8] E,2 D, E, B,,2- B,,[E,G,][E,A,E] |[M:4/4] [E,B,E]2 [E,B,E][E,B,E] [E,B,E]2 [E,B,E][E,B,] | %15
 [E,E]2 [E,E][E,E] [E,E]2 [E,E][E,E] | [A,EA]2 [A,EA][A,EA][K:bass] [E,E][E,E][E,B,][C,A,] | %17
[M:7/8] [B,,G,]2 [B,,A,] [B,,A,] [E,G,]3 |] %18
V:3
 x8 | x8 | x8 | x8 |[M:9/8] x9 |[M:4/4] x8 | x8 | x8 |[M:7/8] x7 |[M:1/4] x2 | %10
[M:4/4] E2 EE E2 G[GB] | z2 B,B, B,2 [EGB][EGB] | x8 |[M:9/8] x9 |[M:4/4] x8 | x8 | x8 | %17
[M:7/8] x7 |] %18

